images/favicon.svg

<svg version="1.1" id="logo" xmlns="http://www.w3.org/2000/svg" x="0" y="0" viewBox="0 0 76 76" xml:space="preserve"><style>.st0{fill:#fff}.st1{fill:#d4613c}</style><circle class="st0" cx="38" cy="38" r="38"/><g id="exclamation"><ellipse class="st1" cx="37.9" cy="59.4" rx="4" ry="5.5"/><path class="st0" d="M37.9 65.9c-2.8 0-5-2.9-5-6.5s2.2-6.5 5-6.5 5 2.9 5 6.5-2.2 6.5-5 6.5zm0-11c-1.6 0-3 2.1-3 4.5s1.4 4.5 3 4.5 3-2.1 3-4.5-1.3-4.5-3-4.5z"/><path class="st1" d="M38 11.1c-12.6 0 0 38.8 0 38.8s12.6-38.8 0-38.8z"/><path class="st0" d="M38 53.1l-1-2.9c-.4-1.2-9.6-29.7-3.7-37.8 1.9-2.5 5.5-3.1 8-1.2.4.3.8.7 1.2 1.2 5.9 8.1-3.3 36.6-3.6 37.8l-.9 2.9zm0-41c-1.2-.1-2.3.5-3 1.5-3.9 5.4.3 23.4 3 32.9 2.8-9.5 6.9-27.5 3-32.9-.6-1-1.8-1.5-3-1.5z"/></g></svg>

<?xml version="1.0" encoding="utf-8"?>
<!-- Generator: Adobe Illustrator 23.1.1, SVG Export Plug-In . SVG Version: 6.00 Build 0)  -->
<svg version="1.1" id="logo" xmlns="http://www.w3.org/2000/svg" xmlns:xlink="http://www.w3.org/1999/xlink" x="0px" y="0px"
	 viewBox="0 0 76 76" style="enable-background:new 0 0 76 76;" xml:space="preserve">
<style type="text/css">
	.st0{fill:#FFFFFF;}
	.st1{fill:#D4613C;}
</style>
<circle class="st0" cx="38" cy="38" r="38"/>
<title>flashback</title>
<g id="exclamation">
	<ellipse class="st1" cx="37.9" cy="59.4" rx="4" ry="5.5"/>
	<path class="st0" d="M37.9,65.9c-2.8,0-5-2.9-5-6.5s2.2-6.5,5-6.5s5,2.9,5,6.5S40.7,65.9,37.9,65.9z M37.9,54.9c-1.6,0-3,2.1-3,4.5
		s1.4,4.5,3,4.5s3-2.1,3-4.5S39.6,54.9,37.9,54.9z"/>
	<path class="st1" d="M38,11.1c-12.6,0,0,38.8,0,38.8S50.6,11.1,38,11.1z"/>
	<path class="st0" d="M38,53.1l-1-2.9c-0.4-1.2-9.6-29.7-3.7-37.8c1.9-2.5,5.5-3.1,8-1.2c0.4,0.3,0.8,0.7,1.2,1.2
		c5.9,8.1-3.3,36.6-3.6,37.8L38,53.1z M38,12.1c-1.2-0.1-2.3,0.5-3,1.5C31.1,19,35.3,37,38,46.5c2.8-9.5,6.9-27.5,3-32.9
		C40.4,12.6,39.2,12.1,38,12.1L38,12.1z"/>
</g>
</svg>
